Numix/32/mimetypes/text-x-gettext-translation-template.svg

<?xml version="1.0" encoding="UTF-8" standalone="no"?>
<svg
   xmlns:dc="http://purl.org/dc/elements/1.1/"
   xmlns:cc="http://creativecommons.org/ns#"
   xmlns:rdf="http://www.w3.org/1999/02/22-rdf-syntax-ns#"
   xmlns:svg="http://www.w3.org/2000/svg"
   xmlns="http://www.w3.org/2000/svg"
   xmlns:sodipodi="http://sodipodi.sourceforge.net/DTD/sodipodi-0.dtd"
   xmlns:inkscape="http://www.inkscape.org/namespaces/inkscape"
   width="32"
   height="32"
   viewBox="0 0 32 32"
   id="svg2993"
   version="1.1"
   inkscape:version="0.91 r13725"
   sodipodi:docname="text-x-gettext-translation-template.svg">
  <metadata
     id="metadata3019">
    <rdf:RDF>
      <cc:Work
         rdf:about="">
        <dc:format>image/svg+xml</dc:format>
        <dc:type
           rdf:resource="http://purl.org/dc/dcmitype/StillImage" />
        <dc:title />
      </cc:Work>
    </rdf:RDF>
  </metadata>
  <defs
     id="defs3017" />
  <sodipodi:namedview
     pagecolor="#ffffff"
     bordercolor="#666666"
     borderopacity="1"
     objecttolerance="10"
     gridtolerance="10"
     guidetolerance="10"
     inkscape:pageopacity="0"
     inkscape:pageshadow="2"
     inkscape:window-width="1366"
     inkscape:window-height="704"
     id="namedview3015"
     showgrid="false"
     inkscape:zoom="1"
     inkscape:cx="13.280045"
     inkscape:cy="5.578622"
     inkscape:window-x="0"
     inkscape:window-y="27"
     inkscape:window-maximized="1"
     inkscape:current-layer="svg2993">
    <inkscape:grid
       type="xygrid"
       id="grid3039" />
  </sodipodi:namedview>
  <path
     inkscape:connector-curvature="0"
     style="fill:#dda06a;fill-opacity:1"
     d="M 5.34375,0 C 4.6562764,1.5e-5 4,0.689007 4,1.40625 l 0,29.1875 C 4,31.270239 4.6953364,32 5.34375,32 l 21.3125,0 C 27.304664,32 28,31.270239 28,30.59375 L 28,8.9999996 28,1.375 C 28,0.702049 27.297951,0 26.625,0 L 19,0 5.34375,0 z"
     id="path4-1" />
  <path
     style="fill:#000000;fill-opacity:0.19599998"
     d="m 4,24 0,6.667969 C 4,31.316407 4.6875,32 5.332031,32 l 21.335938,0 C 27.3125,32 28,31.316407 28,30.667969 L 28,24 Z"
     id="path3025"
     inkscape:connector-curvature="0" />
  <path
     style="opacity:1;fill:#ffffff;fill-opacity:1;stroke:none;stroke-width:0.5;stroke-linecap:round;stroke-linejoin:round;stroke-miterlimit:4;stroke-dasharray:none;stroke-opacity:0.1375"
     d="m 12,8 0,12 1,0 0,-5 8.999916,0 L 18.500083,12 21.999916,9 13,9 13,8 Z"
     id="rect4148"
     inkscape:connector-curvature="0"
     sodipodi:nodetypes="cccccccccc" />
  <path
     style="fill:#ffffff"
     d="m 10.577212,25 c 0.775043,0 1.373754,0.15861 1.800233,0.471299 0.426479,0.308157 0.639719,0.811179 0.639719,1.513595 0,0.706949 -0.21324,1.223565 -0.64792,1.540787 -0.426479,0.312687 -1.033392,0.471299 -1.824838,0.471299 l -0.5444062,0 0,2.00302 L 8.9,31 l 0,-5.854986 c 0.5583129,-0.116463 1.118225,-0.119745 1.677212,-0.145008 m 0.135325,1.028702 c -0.210955,-0.0044 -0.501932,0.0176 -0.7125372,0.02715 l 0,1.916919 0.6059162,0 c 0.385472,0 0.680727,-0.07704 0.877564,-0.222055 0.196836,-0.154077 0.295255,-0.412387 0.295255,-0.774925 0,-0.34441 -0.09842,-0.589123 -0.295255,-0.729606 -0.192736,-0.145016 -0.446983,-0.217523 -0.770943,-0.217523"
     id="path20"
     inkscape:connector-curvature="0"
     sodipodi:nodetypes="ccscsccccccccscscc" />
  <path
     style="fill:#ffffff"
     d="m 14.962608,27.997802 c 0,0.281318 0.0084,0.545054 0.02941,0.791208 0.02522,0.241759 0.07563,0.452748 0.142857,0.632968 0.07143,0.180219 0.172269,0.320879 0.302522,0.426373 0.12605,0.105495 0.346214,0.158243 0.5605,0.158243 0.210085,0 0.432362,-0.05275 0.558412,-0.158243 0.134453,-0.105494 0.235294,-0.246154 0.302521,-0.426373 0.07563,-0.189011 0.121849,-0.4 0.142857,-0.641758 0.02522,-0.241758 0.04201,-0.5011 0.04201,-0.782418 0,-0.276923 -0.01681,-0.536264 -0.04201,-0.778022 -0.02101,-0.25055 -0.06723,-0.461538 -0.142857,-0.641759 -0.06723,-0.180219 -0.163864,-0.320879 -0.289915,-0.426373 -0.130254,-0.105495 -0.356732,-0.158242 -0.571018,-0.158242 -0.214287,0 -0.434451,0.05274 -0.560501,0.158242 -0.130252,0.105494 -0.231092,0.250549 -0.302521,0.435165 -0.06723,0.18022 -0.117646,0.391208 -0.142857,0.632967 -0.02101,0.241758 -0.02941,0.501099 -0.02941,0.778022 m -1.212608,0 c 0,-0.989011 0.197478,-1.736265 0.592437,-2.237363 C 14.741596,25.250549 15.292017,25 15.997899,25 c 0.735295,0 1.294118,0.250549 1.676471,0.760439 0.382353,0.501098 0.575631,1.248352 0.575631,2.237363 0,0.993407 -0.197479,1.740659 -0.584035,2.250549 C 17.275211,30.749451 16.720588,31 16.010505,31 15.27521,31 14.712185,30.749451 14.321429,30.248351 13.939076,29.738461 13.75,28.991209 13.75,27.997802"
     id="path22"
     inkscape:connector-curvature="0"
     sodipodi:nodetypes="ccccscccscccsccccccscscscc" />
  <path
     style="fill:#ffffff"
     d="M 22.9,24.994748 22.9,26 l -1.7,0 0,4.994748 -1.15,0 0,-4.994748 -1.6,0 0,-1.005252 4.45,0"
     id="path24"
     inkscape:connector-curvature="0"
     sodipodi:nodetypes="ccccccccc" />
</svg>

<svg xmlns="http://www.w3.org/2000/svg" viewBox="0 0 32 32">
 <path d="m 5.344 0 c -0.687 0 -1.344 0.689 -1.344 1.406 l 0 29.19 c 0 0.676 0.695 1.406 1.344 1.406 l 21.313 0 c 0.648 0 1.344 -0.73 1.344 -1.406 l 0 -21.594 0 -7.625 c 0 -0.673 -0.702 -1.375 -1.375 -1.375 l -7.625 0 -13.656 0 z" style="fill:#dda06a;fill-opacity:1"/>
 <path d="m 4 24 0 6.668 c 0 0.648 0.688 1.332 1.332 1.332 l 21.336 0 c 0.645 0 1.332 -0.684 1.332 -1.332 l 0 -6.668" style="fill:#000;fill-opacity:0.196"/>
 <path d="m 12 8 0 12 1 0 0 -5 9 0 l -3.5 -3 3.5 -3 -9 0 0 -1" style="fill:#fff;opacity:1;fill-opacity:1;stroke:none"/>
 <path d="m 10.577 25 c 0.775 0 1.374 0.159 1.8 0.471 0.426 0.308 0.64 0.811 0.64 1.514 0 0.707 -0.213 1.224 -0.648 1.541 -0.426 0.313 -1.033 0.471 -1.825 0.471 l -0.544 0 0 2 l -1.1 0 l 0 -5.855 c 0.558 -0.116 1.118 -0.12 1.677 -0.145 m 0.135 1.029 c -0.211 -0.004 -0.502 0.018 -0.713 0.027 l 0 1.917 0.606 0 c 0.385 0 0.681 -0.077 0.878 -0.222 0.197 -0.154 0.295 -0.412 0.295 -0.775 0 -0.344 -0.098 -0.589 -0.295 -0.73 -0.193 -0.145 -0.447 -0.218 -0.771 -0.218" style="fill:#fff"/>
 <path d="m 14.963 27.998 c 0 0.281 0.008 0.545 0.029 0.791 0.025 0.242 0.076 0.453 0.143 0.633 0.071 0.18 0.172 0.321 0.303 0.426 0.126 0.105 0.346 0.158 0.56 0.158 0.21 0 0.432 -0.053 0.558 -0.158 0.134 -0.105 0.235 -0.246 0.303 -0.426 0.076 -0.189 0.122 -0.4 0.143 -0.642 0.025 -0.242 0.042 -0.501 0.042 -0.782 0 -0.277 -0.017 -0.536 -0.042 -0.778 -0.021 -0.251 -0.067 -0.462 -0.143 -0.642 -0.067 -0.18 -0.164 -0.321 -0.29 -0.426 -0.13 -0.105 -0.357 -0.158 -0.571 -0.158 -0.214 0 -0.434 0.053 -0.561 0.158 -0.13 0.105 -0.231 0.251 -0.303 0.435 -0.067 0.18 -0.118 0.391 -0.143 0.633 -0.021 0.242 -0.029 0.501 -0.029 0.778 m -1.213 0 c 0 -0.989 0.197 -1.736 0.592 -2.237 c 0.399 -0.51 0.95 -0.76 1.655 -0.76 c 0.735 0 1.294 0.251 1.676 0.76 0.382 0.501 0.576 1.248 0.576 2.237 0 0.993 -0.197 1.741 -0.584 2.251 c -0.391 0.501 -0.945 0.752 -1.655 0.752 -0.735 0 -1.298 -0.251 -1.689 -0.752 -0.382 -0.51 -0.571 -1.257 -0.571 -2.251" style="fill:#fff"/>
 <path d="m 22.9 24.995 0 1.01 l -1.7 0 0 4.995 -1.15 0 0 -4.995 -1.6 0 0 -1.01 4.45 0" style="fill:#fff"/>
</svg>
